images/footer_ico3.svg

<svg width="24" height="24" viewBox="0 0 24 24" fill="none" xmlns="http://www.w3.org/2000/svg">
<path fill-rule="evenodd" clip-rule="evenodd" d="M12.0013 5.00012C9.24404 5.00012 7 7.36055 7 10.2585C7 13.0865 11.6051 18.6669 11.7992 18.9021C11.8499 18.9636 11.9242 19 12.0014 19C12.0785 19 12.1503 18.9636 12.2008 18.902C12.3975 18.6668 17 13.0864 17 10.2584C17.0001 7.36049 14.7586 5.00012 12.0013 5.00012ZM15 9.99999C15 11.6568 13.6569 13 12 13C10.3431 13 9 11.6568 9 9.99999C9 8.34313 10.3431 6.99999 12 6.99999C13.6569 6.99999 15 8.34313 15 9.99999Z" fill="white"/>
<path fill-rule="evenodd" clip-rule="evenodd" d="M24 12C24 18.6274 18.6274 24 12 24C5.37258 24 0 18.6274 0 12C0 5.37258 5.37258 0 12 0C18.6274 0 24 5.37258 24 12ZM22 12C22 17.5228 17.5228 22 12 22C6.47715 22 2 17.5228 2 12C2 6.47715 6.47715 2 12 2C17.5228 2 22 6.47715 22 12Z" fill="white"/>
</svg>

<svg width="24" height="24" fill="none" xmlns="http://www.w3.org/2000/svg"><path fill-rule="evenodd" clip-rule="evenodd" d="M12.001 5C9.244 5 7 7.36 7 10.258c0 2.829 4.605 8.409 4.8 8.644a.26.26 0 00.201.098.258.258 0 00.2-.098c.197-.235 4.799-5.816 4.799-8.644C17 7.36 14.759 5 12.001 5zM15 10a3 3 0 11-6 0 3 3 0 016 0z" fill="#fff"/><path fill-rule="evenodd" clip-rule="evenodd" d="M24 12c0 6.627-5.373 12-12 12S0 18.627 0 12 5.373 0 12 0s12 5.373 12 12zm-2 0c0 5.523-4.477 10-10 10S2 17.523 2 12 6.477 2 12 2s10 4.477 10 10z" fill="#fff"/></svg>
